icons/glyphs/glyph-wayland.svg

<?xml version="1.0" encoding="UTF-8" standalone="no"?><svg height="16" viewBox="0 0 4.2333332 4.2333332" width="16" xmlns="http://www.w3.org/2000/svg"><sodipodi:namedview/><metadata><rdf:RDF><cc:Work><dc:format>image/svg+xml</dc:format><dc:type/><dc:title/></cc:Work></rdf:RDF></metadata><path d="m2.1166666 0c-1.17263324 0-2.1166666.9440333-2.1166666 2.1166666s.94403336 2.1166666 2.1166666 2.1166666c1.1726332 0 2.1166666-.9440333 2.1166666-2.1166666 0-.5993255-.2476555-1.1377986-.6453354-1.5221809l-.055811.4733561h.021497l.046095-.036794h.012402v.010956c-.0635959.0464796-.1250978.1736605-.1845867.3815785-.0225703.1785705-.060558.3438156-.1138948.4954737-.0471859.1565529-.0706965.3007511-.0706933.4328418l-.089297.2606559c-.0000021.022016.033791.043926.1014925.065939-.012312.051369-.030781.077101-.055397.077101v.014676h.021498v.010956c-.0000021.026908-.034847.040516-.1045932.040514l.012402.014676v.051263h-.021497c.014357.051371.045005.077103.092191.077101v.025632h-.092191v.014676c.030769 0 .046093.022116.046095.066146l-.1291911.051263.012196.014676v.010956c-.0000032.017124-.015325.025838-.046095.025838v.014676c.038974 0 .058494.00852.058498.025632-.055392.022017-.1282243.1309061-.2184884.326595-.092316.1736758-.172288.2604493-.2399854.2604493h-.0248051c-.0512892-.03914-.0932697-.1688706-.1260907-.3890209-.1312969-.3351181-.1969916-.5318503-.1969906-.5905582-.000001-.1516581-.0419825-.3132884-.1260904-.4845182-.0225668-.0758264-.0378912-.1711098-.0460954-.2860807l-.0553972-.0146761c-.139501.2519531-.2123369.4488911-.2184879.5907649-.038981.08317-.069832.1833432-.092398.3007568.084109.026909.1262962.052641.1262972.077101v.014676c-.0656468-.00979-.1118265-.028075-.1384923-.054984-.0287211.066046-.0667133.2493771-.1138949.5502506-.0369274.1394302-.083105.2091862-.1384929.2091862-.1559115-.061154-.2862568-.1613278-.3908804-.3007568-.016412 0-.04307-.069757-.0799951-.2091862-.0225668 0-.03789-.069757-.0460954-.2091862-.07795459-.1981353-.13127017-.424422-.15999017-.678821v-.3815788h-.0124024l-.0553971.014676v-.014676c0-.017124.0184696-.02563.0553971-.025632l-.01219559-.220141v-.1723926l-.08929684-.5504573v-.2348177c.0389784-.1467634.10677227-.2201385.20319171-.2201417 0 0 .008438-.0006311.0367936.036587l-.0367936-.010955c.14975519.1956933.23791329.3607316.26458329.4952669h.1045931v.025838h-.079995v.029352c.030772.1125238.053233.1686736.067593.1686715h.0248046l.05519-.014676.012402.014676.012402-.014676.012196.014676v.010955c-.041029.029355-.068735.069761-.083096.1211298h-.0091v.025632h.021497c.02872.408505.082034.7179494.1599902.9283154l.046095.036794h.024598c.030772.0000009.095419-.1431282.1938895-.429328.0636018-.1296428.1097773-.2434262.1384994-.3412712l-.0124024-.0403077c.0635943-.0953961.1292922-.1430371.1969906-.1430403h.021498c.04308.0000032.073933.026804.092397.080615.05744.080725.1036175.2019461.1384927.3633885l.1723925.3815791c.022565.02691.033691.057326.033693.091571.063594.1443239.1211046.2398107.1723925.2862874h.037c.043079 0 .1003822-.1786435.1721859-.5357812.012306.0000021.046307-.095282.1016991-.2860807v-.0146763l-.1938894-.0256316-.0463021.014676h-.0582909v-.0293525l.1167886-.0111618h.2277898c.08821-.3155495.1692302-.5601265.2430859-.7338053.0246147-.3571304.0584079-.5355703.1014925-.5355746l.0777218-.0372071c-.3578868-.2772374-.8064824-.4435904-1.2962516-.4435904zm.1845881.7302913h.0339v.010956c-.0000021.017126-.011334.025634-.0339.025632l-.012196.014676v.014676l-.0339-.014676v-.0256324zm-.1721858.1430404v.014676c-.0000011.019573-.049324.040413-.1477946.062425v-.0258383l.0678-.036587.012196.010956h.0093zm-.3323828.1320849v.010956c-.043083.039141-.1129746.074656-.2093929.1064533v-.025632c.016412.0000021.024804-.013605.024805-.040514zm.5845638.1283643.012402.014676v.010955l-.021497.029352h-.012403l-.024598-.029352v-.010955zm.4247802.014676h.012196v.010955l-.021498.029352h-.012402v-.014675zm-.1938899.1835547.046095.036587c-.0082.026909-.030668.04031-.067593.040308l-.024598-.040307c-.0000021-.012228.015322-.024355.046096-.036588zm.2769856.1686719.0091.014676v.010955l-.0091.014676h-.024598v-.014676zm-.436976.132085v.010955l-.058498.055191h-.0339v-.014676c-.0000021-.022013.030851-.039236.092397-.05147zm-.403076 1.1228255h.012196v.025632l-.092398.054984-.012196-.014676v-.025632zm-.0339.3412712h.00909l.037.040307-.012196.010956h-.012396l-.0214978-.036587z" fill="#d0d0d0" opacity=".9" stroke-opacity=".550265" stroke-width=".740833"/></svg>

<?xml version="1.0" encoding="UTF-8" standalone="no"?>
<!-- Created with Inkscape (http://www.inkscape.org/) -->

<svg
   xmlns:dc="http://purl.org/dc/elements/1.1/"
   xmlns:cc="http://creativecommons.org/ns#"
   xmlns:rdf="http://www.w3.org/1999/02/22-rdf-syntax-ns#"
   xmlns:svg="http://www.w3.org/2000/svg"
   xmlns="http://www.w3.org/2000/svg"
   xmlns:xlink="http://www.w3.org/1999/xlink"
   xmlns:sodipodi="http://sodipodi.sourceforge.net/DTD/sodipodi-0.dtd"
   xmlns:inkscape="http://www.inkscape.org/namespaces/inkscape"
   width="16"
   height="16"
   viewBox="0 0 4.2333332 4.2333332"
   version="1.1"
   id="svg8"
   inkscape:version="0.92+devel (4546dc857e, 2017-07-25, custom)"
   sodipodi:docname="glyph-wayland.svg">
  <defs
     id="defs2">
    <linearGradient
       gradientTransform="matrix(0.10583333,0,0,0.10583333,-42.4491,-50.220678)"
       xlink:href="#d"
       id="linearGradient4205"
       x1="388.57101"
       y1="523.79797"
       x2="428.57101"
       y2="523.79797"
       gradientUnits="userSpaceOnUse" />
    <linearGradient
       gradientTransform="matrix(1.25,0,0,1.26667,-92.14,-151.08)"
       gradientUnits="userSpaceOnUse"
       x2="392.89999"
       y2="546.58002"
       x1="400.57001"
       y1="537.59998"
       id="d">
      <stop
         stop-color="#ffc35a"
         id="stop3" />
      <stop
         stop-color="#faae2a"
         offset="1"
         id="stop5" />
    </linearGradient>
  </defs>
  <sodipodi:namedview
     id="base"
     pagecolor="#002466"
     bordercolor="#ffffff"
     borderopacity="0.38039216"
     inkscape:pageopacity="1"
     inkscape:pageshadow="2"
     inkscape:zoom="18.208"
     inkscape:cx="10.094581"
     inkscape:cy="7.9162778"
     inkscape:document-units="px"
     inkscape:current-layer="svg8"
     inkscape:document-rotation="0"
     showgrid="false"
     inkscape:showpageshadow="false"
     borderlayer="true"
     inkscape:window-width="1920"
     inkscape:window-height="1051"
     inkscape:window-x="0"
     inkscape:window-y="0"
     inkscape:window-maximized="1"
     units="px" />
  <metadata
     id="metadata5">
    <rdf:RDF>
      <cc:Work
         rdf:about="">
        <dc:format>image/svg+xml</dc:format>
        <dc:type
           rdf:resource="http://purl.org/dc/dcmitype/StillImage" />
        <dc:title></dc:title>
      </cc:Work>
    </rdf:RDF>
  </metadata>
  <path
     inkscape:connector-curvature="0"
     style="opacity:0.9;fill:#d0d0d0;fill-opacity:1;stroke-width:0.74083328;stroke-opacity:0.55026502"
     d="M 2.1166666,0 C 0.94403336,0 0,0.9440333 0,2.1166666 c 0,1.1726333 0.94403336,2.1166666 2.1166666,2.1166666 1.1726332,0 2.1166666,-0.9440333 2.1166666,-2.1166666 0,-0.5993255 -0.2476555,-1.1377986 -0.6453354,-1.5221809 l -0.055811,0.4733561 h 0.021497 l 0.046095,-0.036794 h 0.012402 v 0.010956 C 3.5485849,1.0884834 3.487083,1.2156643 3.4275941,1.4235823 3.4050238,1.6021528 3.3670361,1.7673979 3.3136993,1.919056 3.2665134,2.0756089 3.2430028,2.2198071 3.243006,2.3518978 L 3.153709,2.6125537 c -2.1e-6,0.022016 0.033791,0.043926 0.1014925,0.065939 -0.012312,0.051369 -0.030781,0.077101 -0.055397,0.077101 v 0.014676 h 0.021498 v 0.010956 c -2.1e-6,0.026908 -0.034847,0.040516 -0.1045932,0.040514 l 0.012402,0.014676 v 0.051263 h -0.021497 c 0.014357,0.051371 0.045005,0.077103 0.092191,0.077101 v 0.025632 h -0.092191 v 0.014676 c 0.030769,0 0.046093,0.022116 0.046095,0.066146 l -0.1291911,0.051263 0.012196,0.014676 v 0.010956 c -3.2e-6,0.017124 -0.015325,0.025838 -0.046095,0.025838 v 0.014676 c 0.038974,0 0.058494,0.00852 0.058498,0.025632 C 2.9937252,3.2362917 2.9208929,3.3451808 2.8306288,3.5408697 2.7383128,3.7145455 2.6583408,3.801319 2.5906434,3.801319 H 2.5658383 C 2.5145491,3.762179 2.4725686,3.6324484 2.4397476,3.4122981 2.3084507,3.07718 2.242756,2.8804478 2.242757,2.8217399 2.242756,2.6700818 2.2007745,2.5084515 2.1166666,2.3372217 2.0940998,2.2613953 2.0787754,2.1661119 2.0705712,2.051141 L 2.015174,2.0364649 C 1.875673,2.288418 1.8028371,2.485356 1.7966861,2.6272298 c -0.038981,0.08317 -0.069832,0.1833432 -0.092398,0.3007568 0.084109,0.026909 0.1262962,0.052641 0.1262972,0.077101 v 0.014676 C 1.7649385,3.0099736 1.7187588,2.9916886 1.692093,2.9647796 1.6633719,3.0308256 1.6253797,3.2141567 1.5781981,3.5150302 1.5412707,3.6544604 1.4950931,3.7242164 1.4397052,3.7242164 1.2837937,3.6630624 1.1534484,3.5628886 1.0488248,3.4234596 c -0.016412,0 -0.04307,-0.069757 -0.0799951,-0.2091862 -0.0225668,0 -0.03789,-0.069757 -0.0460954,-0.2091862 C 0.84477971,2.8069519 0.79146413,2.5806652 0.76274413,2.3262662 V 1.9446874 h -0.0124024 l -0.0553971,0.014676 v -0.014676 c 0,-0.017124 0.0184696,-0.02563 0.0553971,-0.025632 L 0.73814614,1.6989144 V 1.5265218 L 0.6488493,0.9760645 V 0.7412468 C 0.6878277,0.5944834 0.75562157,0.5211083 0.85204101,0.5211051 c 0,0 0.008438,-6.311e-4 0.0367936,0.036587 L 0.85204101,0.5467371 C 1.0017962,0.7424304 1.0899543,0.9074687 1.1166243,1.042004 h 0.1045931 v 0.025838 h -0.079995 v 0.029352 c 0.030772,0.1125238 0.053233,0.1686736 0.067593,0.1686715 H 1.23362 l 0.05519,-0.014676 0.012402,0.014676 0.012402,-0.014676 0.012196,0.014676 v 0.010955 C 1.284781,1.3061755 1.257075,1.3465815 1.242714,1.3979503 h -0.0091 v 0.025632 h 0.021497 c 0.02872,0.408505 0.082034,0.7179494 0.1599902,0.9283154 l 0.046095,0.036794 h 0.024598 c 0.030772,9e-7 0.095419,-0.1431282 0.1938895,-0.429328 C 1.7432855,1.8297209 1.789461,1.7159375 1.8181831,1.6180925 L 1.8057807,1.5777848 C 1.869375,1.4823887 1.9350729,1.4347477 2.0027713,1.4347445 h 0.021498 c 0.04308,3.2e-6 0.073933,0.026804 0.092397,0.080615 0.05744,0.080725 0.1036175,0.2019461 0.1384927,0.3633885 l 0.1723925,0.3815791 c 0.022565,0.02691 0.033691,0.057326 0.033693,0.091571 0.063594,0.1443239 0.1211046,0.2398107 0.1723925,0.2862874 h 0.037 c 0.043079,0 0.1003822,-0.1786435 0.1721859,-0.5357812 0.012306,2.1e-6 0.046307,-0.095282 0.1016991,-0.2860807 V 1.8016473 L 2.7506326,1.7760157 2.7043305,1.7906917 H 2.6460396 V 1.7613392 L 2.7628282,1.7501774 H 2.990618 C 3.078828,1.4346279 3.1598482,1.1900509 3.2337039,1.0163721 3.2583186,0.6592417 3.2921118,0.4808018 3.3351964,0.4807975 L 3.4129182,0.4435904 C 3.0550314,0.166353 2.6064358,0 2.1166666,0 Z m 0.1845881,0.7302913 h 0.0339 v 0.010956 c -2.1e-6,0.017126 -0.011334,0.025634 -0.0339,0.025632 l -0.012196,0.014676 v 0.014676 l -0.0339,-0.014676 V 0.7559229 Z M 2.1290689,0.8733317 v 0.014676 c -1.1e-6,0.019573 -0.049324,0.040413 -0.1477946,0.062425 V 0.9245944 l 0.0678,-0.036587 0.012196,0.010956 h 0.0093 z M 1.7966861,1.0054166 v 0.010956 c -0.043083,0.039141 -0.1129746,0.074656 -0.2093929,0.1064533 v -0.025632 c 0.016412,2.1e-6 0.024804,-0.013605 0.024805,-0.040514 z m 0.5845638,0.1283643 0.012402,0.014676 v 0.010955 l -0.021497,0.029352 h -0.012403 l -0.024598,-0.029352 v -0.010955 z m 0.4247802,0.014676 h 0.012196 v 0.010955 l -0.021498,0.029352 h -0.012402 v -0.014675 z m -0.1938899,0.1835547 0.046095,0.036587 c -0.0082,0.026909 -0.030668,0.04031 -0.067593,0.040308 l -0.024598,-0.040307 c -2.1e-6,-0.012228 0.015322,-0.024355 0.046096,-0.036588 z m 0.2769856,0.1686719 0.0091,0.014676 v 0.010955 l -0.0091,0.014676 h -0.024598 v -0.014676 z m -0.436976,0.132085 v 0.010955 l -0.058498,0.055191 h -0.0339 v -0.014676 c -2.1e-6,-0.022013 0.030851,-0.039236 0.092397,-0.05147 z M 2.0490738,2.755594 h 0.012196 V 2.781226 L 1.9688718,2.83621 1.9566758,2.821534 V 2.795902 Z m -0.0339,0.3412712 h 0.00909 l 0.037,0.040307 -0.012196,0.010956 H 2.0366718 L 2.015174,3.1115412 Z"
     id="rect20" />
</svg>
